X: 35831
T: Saltón De Xove
R: reel
M: 4/4
K: Gmajor
|:GABd gdBd|cAFA BGEG|DEFA dAFA|GE^CE D4|
GABd gdBd|cAFA BGED|CEGc dcGE|DFAF G3D:|
|:FDFD E3E|GEGE F3F|AFAF G3D|GDGB A3D|
FDFD E3E|GEGE F3F|GEFD EGBA|FDEF G4:|

